;FLAVOR:Marlin
;TIME:3030
;Filament used: 3.10482m
;Layer height: 0.2
;Generated with Cura_SteamEngine 3.2.0
M190 S60
M104 S210
M109 S210
M82 ;absolute extrusion mode
G21 ;metric values
G90 ;absolute positioning
M82 ;set extruder to absolute mode
M107 ;start with the fan off
G28 X0 Y0 ;move X/Y to min endstops
G28 Z0 ;move Z to min endstops
G1 Z15.0 F9000 ;move the platform down 15mm
G92 E0 ;zero the extruded length
G1 F200 E3 ;extrude 3mm of feed stock
G92 E0 ;zero the extruded length again
G1 F9000
;Put printing message on LCD screen
M117 Printing...
;LAYER_COUNT:75
;LAYER:0
M107
G0 F3600 X75.158 Y75.649 Z0.3
;TYPE:SKIRT
G1 F1800 X75.525 Y75.286 E0.02605
G1 X77.424 Y73.541 E0.1562
G1 X77.841 Y73.187 E0.1838
G1 X79.385 Y71.982 E0.28264
G1 X79.799 Y71.684 E0.30839
G1 X81.68 Y70.431 E0.42244
G1 X82.192 Y70.122 E0.45262
G1 X84.467 Y68.88 E0.58343
G1 X85.011 Y68.613 E0.61401
G1 X87.278 Y67.626 E0.73879
G1 X87.756 Y67.439 E0.76469
G1 X89.321 Y66.894 E0.84832
G1 X89.817 Y66.742 E0.8745
G1 X92.375 Y66.065 E1.00803
G1 X92.88 Y65.952 E1.03415
G1 X94.493 Y65.654 E1.11693
G1 X94.915 Y65.59 E1.13847
G1 X96.8 Y65.363 E1.23428
G1 X97.307 Y65.321 E1.25995
G1 X99.594 Y65.218 E1.37548
G1 X100.199 Y65.218 E1.40602
G1 X102.813 Y65.333 E1.53806
G1 X103.344 Y65.377 E1.56495
G1 X105.165 Y65.601 E1.65754
G1 X105.666 Y65.682 E1.68315
G1 X107.965 Y66.141 E1.80146
G1 X108.442 Y66.254 E1.8262
G1 X110.048 Y66.697 E1.91027
G1 X110.544 Y66.854 E1.93653
G1 X112.974 Y67.729 E2.06687
G1 X113.468 Y67.929 E2.09376
G1 X115.154 Y68.69 E2.18711
G1 X115.544 Y68.882 E2.20905
G1 X117.07 Y69.692 E2.29623
G1 X117.486 Y69.931 E2.32045
G1 X119.403 Y71.129 E2.43453
G1 X119.896 Y71.469 E2.46475
G1 X121.957 Y73.025 E2.59507
G1 X122.357 Y73.352 E2.62114
G1 X123.617 Y74.463 E2.70592
G1 X123.932 Y74.758 E2.7277
G1 X125.286 Y76.114 E2.8244
G1 X125.629 Y76.485 E2.8499
G1 X127.124 Y78.223 E2.96559
G1 X127.505 Y78.708 E2.99672
G1 X129.046 Y80.868 E3.13062
G1 X129.341 Y81.318 E3.15777
G1 X130.297 Y82.911 E3.25153
G1 X130.538 Y83.348 E3.27672
G1 X131.553 Y85.361 E3.39049
G1 X131.757 Y85.805 E3.41514
G1 X132.427 Y87.411 E3.50296
G1 X132.61 Y87.903 E3.52945
G1 X133.413 Y90.343 E3.65908
G1 X133.577 Y90.928 E3.68974
G1 X134.145 Y93.369 E3.81622
G1 X134.242 Y93.871 E3.84202
G1 X134.49 Y95.475 E3.92393
G1 X134.549 Y95.984 E3.94979
G1 X134.752 Y98.58 E4.0812
G1 X134.773 Y99.121 E4.10852
G1 X134.77 Y100.991 E4.20289
G1 X134.751 Y101.493 E4.22824
G1 X134.577 Y103.794 E4.34469
G1 X134.504 Y104.396 E4.3753
G1 X134.077 Y106.964 E4.50667
G1 X133.974 Y107.464 E4.53243
G1 X133.585 Y109.055 E4.61509
G1 X133.469 Y109.472 E4.63693
G1 X132.89 Y111.321 E4.73471
G1 X132.721 Y111.799 E4.7603
G1 X131.893 Y113.884 E4.87351
G1 X131.698 Y114.328 E4.89798
G1 X130.953 Y115.873 E4.98454
G1 X130.71 Y116.332 E5.01075
G1 X129.433 Y118.533 E5.13917
G1 X129.146 Y118.985 E5.16619
G1 X128.051 Y120.57 E5.26341
G1 X127.737 Y120.989 E5.28983
G1 X126.273 Y122.794 E5.40712
G1 X125.962 Y123.152 E5.43105
G1 X124.844 Y124.349 E5.5137
G1 X124.475 Y124.714 E5.5399
G1 X122.576 Y126.459 E5.67005
G1 X122.159 Y126.813 E5.69765
G1 X120.615 Y128.018 E5.79649
G1 X120.201 Y128.316 E5.82223
G1 X118.32 Y129.569 E5.93629
G1 X117.808 Y129.878 E5.96647
G1 X115.533 Y131.12 E6.09727
G1 X114.989 Y131.387 E6.12785
G1 X112.722 Y132.374 E6.25263
G1 X112.244 Y132.561 E6.27854
G1 X110.679 Y133.106 E6.36217
G1 X110.183 Y133.258 E6.38835
G1 X107.625 Y133.935 E6.52188
G1 X107.12 Y134.048 E6.54799
G1 X105.507 Y134.346 E6.63077
G1 X105.085 Y134.41 E6.65231
G1 X103.2 Y134.637 E6.74813
G1 X102.693 Y134.679 E6.7738
G1 X100.406 Y134.782 E6.88933
G1 X99.801 Y134.782 E6.91986
G1 X97.187 Y134.667 E7.05191
G1 X96.656 Y134.623 E7.0788
G1 X94.835 Y134.399 E7.17139
G1 X94.334 Y134.318 E7.197
G1 X92.035 Y133.859 E7.31531
G1 X91.558 Y133.746 E7.34005
G1 X89.952 Y133.303 E7.42412
G1 X89.456 Y133.146 E7.45037
G1 X87.026 Y132.271 E7.58071
G1 X86.532 Y132.071 E7.60761
G1 X84.846 Y131.31 E7.70096
G1 X84.456 Y131.118 E7.7229
G1 X82.93 Y130.308 E7.81008
G1 X82.513 Y130.068 E7.83436
G1 X80.592 Y128.867 E7.94869
G1 X80.1 Y128.528 E7.97885
G1 X78.043 Y126.975 E8.10892
G1 X77.643 Y126.648 E8.13499
G1 X76.383 Y125.537 E8.21976
G1 X76.068 Y125.242 E8.24154
G1 X74.714 Y123.886 E8.33825
G1 X74.371 Y123.516 E8.36371
G1 X72.875 Y121.777 E8.47947
G1 X72.499 Y121.297 E8.51024
G1 X70.986 Y119.181 E8.64152
G1 X70.691 Y118.733 E8.66859
G1 X69.722 Y117.123 E8.76342
G1 X69.478 Y116.682 E8.78885
G1 X68.445 Y114.637 E8.90447
G1 X68.24 Y114.191 E8.92924
G1 X67.584 Y112.62 E9.01516
G1 X67.401 Y112.129 E9.0416
G1 X66.587 Y109.66 E9.1728
G1 X66.424 Y109.079 E9.20325
G1 X65.864 Y106.684 E9.32737
G1 X65.765 Y106.175 E9.35354
G1 X65.506 Y104.499 E9.43913
G1 X65.446 Y103.985 E9.46524
G1 X65.247 Y101.415 E9.59533
G1 X65.227 Y100.879 E9.62239
G1 X65.23 Y99.009 E9.71676
G1 X65.249 Y98.505 E9.74222
G1 X65.424 Y96.199 E9.85892
G1 X65.497 Y95.599 E9.88943
G1 X65.923 Y93.036 E10.02054
G1 X66.026 Y92.536 E10.04631
G1 X66.415 Y90.945 E10.12896
G1 X66.531 Y90.528 E10.1508
G1 X67.11 Y88.679 E10.24858
G1 X67.279 Y88.201 E10.27417
G1 X68.107 Y86.116 E10.38738
G1 X68.302 Y85.672 E10.41185
G1 X69.047 Y84.127 E10.49841
G1 X69.29 Y83.668 E10.52462
G1 X70.567 Y81.467 E10.65304
G1 X70.854 Y81.015 E10.68006
G1 X71.949 Y79.43 E10.77728
G1 X72.264 Y79.01 E10.80377
G1 X73.742 Y77.189 E10.92213
G1 X74.054 Y76.83 E10.94613
G1 X75.158 Y75.649 E11.02772
G0 F3600 X75.451 Y75.922
G1 F1800 X75.796 Y75.58 E11.05223
G1 X77.695 Y73.835 E11.18238
G1 X78.087 Y73.503 E11.20831
G1 X79.631 Y72.298 E11.30715
G1 X80.021 Y72.017 E11.33141
G1 X81.902 Y70.764 E11.44546
G1 X82.383 Y70.473 E11.47383
G1 X84.658 Y69.231 E11.60464
G1 X85.17 Y68.98 E11.63341
G1 X87.437 Y67.993 E11.75819
G1 X87.887 Y67.817 E11.78257
G1 X89.452 Y67.272 E11.8662
G1 X89.92 Y67.129 E11.8909
G1 X92.478 Y66.452 E12.02444
G1 X92.952 Y66.346 E12.04895
G1 X94.565 Y66.048 E12.13172
G1 X94.963 Y65.987 E12.15204
G1 X96.848 Y65.76 E12.24786
G1 X97.325 Y65.72 E12.27202
G1 X99.612 Y65.617 E12.38755
G1 X100.181 Y65.617 E12.41626
G1 X102.795 Y65.732 E12.54831
G1 X103.295 Y65.774 E12.57363
G1 X105.116 Y65.998 E12.66622
G1 X105.588 Y66.074 E12.69034
G1 X107.887 Y66.533 E12.80865
G1 X108.336 Y66.639 E12.83193
G1 X109.942 Y67.082 E12.91601
G1 X110.408 Y67.23 E12.94068
G1 X112.838 Y68.105 E13.07102
G1 X113.303 Y68.294 E13.09635
G1 X114.989 Y69.055 E13.1897
G1 X115.357 Y69.235 E13.21038
G1 X116.883 Y70.045 E13.29756
G1 X117.274 Y70.271 E13.32035
G1 X119.191 Y71.469 E13.43443
G1 X119.655 Y71.788 E13.46285
G1 X121.716 Y73.344 E13.59317
G1 X122.093 Y73.652 E13.61774
G1 X123.353 Y74.763 E13.70251
G1 X123.649 Y75.041 E13.72301
G1 X125.003 Y76.397 E13.81971
G1 X125.326 Y76.745 E13.84367
G1 X126.821 Y78.483 E13.95936
G1 X127.179 Y78.94 E13.98866
G1 X128.72 Y81.1 E14.12256
G1 X128.998 Y81.524 E14.14815
G1 X129.954 Y83.117 E14.24191
G1 X130.181 Y83.529 E14.26564
G1 X131.196 Y85.542 E14.37941
G1 X131.388 Y85.959 E14.40258
G1 X132.058 Y87.565 E14.4904
G1 X132.23 Y88.028 E14.51533
G1 X133.033 Y90.468 E14.64496
G1 X133.187 Y91.019 E14.67383
G1 X133.755 Y93.46 E14.80031
G1 X133.847 Y93.932 E14.82457
G1 X134.095 Y95.536 E14.90648
G1 X134.151 Y96.015 E14.93082
G1 X134.354 Y98.611 E15.06223
G1 X134.373 Y99.12 E15.08793
G1 X134.37 Y100.99 E15.1823
G1 X134.352 Y101.463 E15.20619
G1 X134.178 Y103.764 E15.32264
G1 X134.109 Y104.331 E15.35147
G1 X133.682 Y106.899 E15.48284
G1 X133.586 Y107.369 E15.50705
G1 X133.197 Y108.96 E15.5897
G1 X133.088 Y109.353 E15.61029
G1 X132.509 Y111.202 E15.70806
G1 X132.349 Y111.651 E15.73212
G1 X131.521 Y113.736 E15.84533
G1 X131.338 Y114.154 E15.86836
G1 X130.593 Y115.699 E15.95492
G1 X130.364 Y116.131 E15.9796
G1 X129.087 Y118.332 E16.10801
G1 X128.817 Y118.758 E16.13346
G1 X127.722 Y120.343 E16.23068
G1 X127.427 Y120.737 E16.25552
G1 X125.963 Y122.542 E16.37281
G1 X125.669 Y122.879 E16.39538
G1 X124.551 Y124.076 E16.47803
G1 X124.204 Y124.42 E16.50269
G1 X122.305 Y126.165 E16.63284
G1 X121.913 Y126.497 E16.65876
G1 X120.369 Y127.702 E16.7576
G1 X119.979 Y127.983 E16.78186
G1 X118.098 Y129.236 E16.89592
G1 X117.617 Y129.527 E16.92429
G1 X115.342 Y130.769 E17.05509
G1 X114.83 Y131.02 E17.08387
G1 X112.563 Y132.007 E17.20865
G1 X112.113 Y132.183 E17.23303
G1 X110.548 Y132.728 E17.31666
G1 X110.08 Y132.871 E17.34136
G1 X107.522 Y133.548 E17.47489
G1 X107.048 Y133.654 E17.4994
G1 X105.435 Y133.952 E17.58218
G1 X105.037 Y134.013 E17.6025
G1 X103.152 Y134.24 E17.69832
G1 X102.675 Y134.28 E17.72247
G1 X100.388 Y134.383 E17.838
G1 X99.819 Y134.383 E17.86672
G1 X97.205 Y134.268 E17.99876
G1 X96.705 Y134.226 E18.02408
G1 X94.884 Y134.002 E18.11667
G1 X94.412 Y133.926 E18.1408
G1 X92.113 Y133.467 E18.25911
G1 X91.664 Y133.361 E18.28239
G1 X90.058 Y132.918 E18.36647
G1 X89.592 Y132.77 E18.39114
G1 X87.162 Y131.895 E18.52148
G1 X86.697 Y131.706 E18.54681
G1 X85.011 Y130.945 E18.64016
G1 X84.643 Y130.765 E18.66083
G1 X83.117 Y129.955 E18.74802
G1 X82.725 Y129.729 E18.77085
G1 X80.804 Y128.528 E18.88519
G1 X80.341 Y128.209 E18.91356
G1 X78.284 Y126.656 E19.04363
G1 X77.907 Y126.348 E19.0682
G1 X76.647 Y125.237 E19.15297
G1 X76.351 Y124.959 E19.17346
G1 X74.997 Y123.603 E19.27017
G1 X74.674 Y123.255 E19.29413
G1 X73.178 Y121.516 E19.40989
G1 X72.824 Y121.064 E19.43887
G1 X71.311 Y118.948 E19.57014
G1 X71.034 Y118.526 E19.59562
G1 X70.065 Y116.916 E19.69045
G1 X69.835 Y116.502 E19.71435
G1 X68.802 Y114.457 E19.82997
G1 X68.609 Y114.037 E19.85329
G1 X67.953 Y112.466 E19.93921
G1 X67.781 Y112.004 E19.96409
G1 X66.967 Y109.535 E20.09528
G1 X66.813 Y108.988 E20.12396
G1 X66.253 Y106.593 E20.24808
G1 X66.16 Y106.113 E20.27276
G1 X65.901 Y104.437 E20.35834
G1 X65.845 Y103.954 E20.38288
G1 X65.646 Y101.384 E20.51296
G1 X65.627 Y100.88 E20.53842
G1 X65.63 Y99.01 E20.63279
G1 X65.648 Y98.536 E20.65672
G1 X65.823 Y96.23 E20.77343
G1 X65.892 Y95.665 E20.80216
G1 X66.318 Y93.102 E20.93327
G1 X66.414 Y92.631 E20.95753
G1 X66.803 Y91.04 E21.04019
G1 X66.912 Y90.647 E21.06077
G1 X67.491 Y88.798 E21.15855
G1 X67.651 Y88.349 E21.1826
G1 X68.479 Y86.264 E21.29582
G1 X68.662 Y85.846 E21.31884
G1 X69.407 Y84.301 E21.4054
G1 X69.636 Y83.869 E21.43008
G1 X70.913 Y81.668 E21.55849
G1 X71.183 Y81.242 E21.58395
G1 X72.278 Y79.657 E21.68116
G1 X72.575 Y79.262 E21.7061
G1 X74.053 Y77.441 E21.82446
G1 X74.347 Y77.103 E21.84707
G1 X75.451 Y75.922 E21.92865
G0 F3600 X75.743 Y76.196
G1 F1800 X76.066 Y75.875 E21.95164
G1 X77.965 Y74.13 E22.08178
G1 X78.334 Y73.818 E22.10617
G1 X79.878 Y72.613 E22.20501
G1 X80.243 Y72.349 E22.22774
G1 X82.124 Y71.096 E22.3418
G1 X82.575 Y70.824 E22.36838
G1 X84.85 Y69.582 E22.49918
G1 X85.33 Y69.347 E22.52615
G1 X87.597 Y68.36 E22.65093
G1 X88.019 Y68.195 E22.6738
G1 X89.584 Y67.65 E22.75743
G1 X90.022 Y67.516 E22.78054
G1 X92.58 Y66.839 E22.91408
G1 X93.025 Y66.739 E22.93709
G1 X94.638 Y66.441 E23.01987
G1 X95.011 Y66.384 E23.03892
G1 X96.896 Y66.157 E23.13473
G1 X97.343 Y66.12 E23.15736
G1 X99.63 Y66.017 E23.2729
G1 X100.164 Y66.017 E23.29984
G1 X102.778 Y66.132 E23.43189
G1 X103.247 Y66.171 E23.45564
G1 X105.068 Y66.395 E23.54823
G1 X105.51 Y66.466 E23.57082
G1 X107.809 Y66.925 E23.68913
G1 X108.229 Y67.025 E23.71092
G1 X109.835 Y67.468 E23.79499
G1 X110.273 Y67.607 E23.81818
G1 X112.703 Y68.482 E23.94852
G1 X113.138 Y68.658 E23.9722
G1 X114.824 Y69.419 E24.06555
G1 X115.169 Y69.588 E24.08494
G1 X116.695 Y70.398 E24.17212
G1 X117.062 Y70.61 E24.19351
G1 X118.979 Y71.808 E24.30759
G1 X119.414 Y72.107 E24.33423
G1 X121.475 Y73.663 E24.46455
G1 X121.828 Y73.952 E24.48758
G1 X123.088 Y75.063 E24.57235
G1 X123.366 Y75.323 E24.59156
G1 X124.72 Y76.679 E24.68826
G1 X125.023 Y77.006 E24.71076
G1 X126.518 Y78.744 E24.82645
G1 X126.853 Y79.172 E24.85388
G1 X128.394 Y81.332 E24.98779
G1 X128.655 Y81.73 E25.0118
G1 X129.611 Y83.323 E25.10556
G1 X129.823 Y83.709 E25.12779
G1 X130.838 Y85.722 E25.24155
G1 X131.018 Y86.113 E25.26328
G1 X131.688 Y87.719 E25.35109
G1 X131.85 Y88.153 E25.37447
G1 X132.653 Y90.593 E25.5041
G1 X132.798 Y91.109 E25.53115
G1 X133.366 Y93.55 E25.65763
G1 X133.452 Y93.993 E25.6804
G1 X133.7 Y95.597 E25.76231
G1 X133.752 Y96.046 E25.78512
G1 X133.955 Y98.642 E25.91653
G1 X133.973 Y99.12 E25.94067
G1 X133.97 Y100.99 E26.03504
G1 X133.953 Y101.432 E26.05736
G1 X133.779 Y103.733 E26.17381
G1 X133.715 Y104.265 E26.20086
G1 X133.288 Y106.833 E26.33223
G1 X133.197 Y107.274 E26.35495
G1 X132.808 Y108.865 E26.43761
G1 X132.706 Y109.233 E26.45688
G1 X132.127 Y111.082 E26.55466
G1 X131.977 Y111.504 E26.57726
G1 X131.149 Y113.589 E26.69047
G1 X130.977 Y113.98 E26.71203
G1 X130.232 Y115.525 E26.79859
G1 X130.018 Y115.93 E26.82171
G1 X128.741 Y118.131 E26.95012
G1 X128.488 Y118.53 E26.97396
G1 X127.393 Y120.115 E27.07118
G1 X127.116 Y120.485 E27.09451
G1 X125.652 Y122.29 E27.21179
G1 X125.377 Y122.605 E27.2329
G1 X124.259 Y123.802 E27.31555
G1 X123.934 Y124.125 E27.33868
G1 X122.035 Y125.87 E27.46883
G1 X121.666 Y126.182 E27.49321
G1 X120.122 Y127.387 E27.59205
G1 X119.757 Y127.651 E27.61479
G1 X117.876 Y128.904 E27.72884
G1 X117.425 Y129.176 E27.75542
G1 X115.15 Y130.418 E27.88623
G1 X114.67 Y130.653 E27.9132
G1 X112.403 Y131.64 E28.03797
G1 X111.981 Y131.805 E28.06084
G1 X110.416 Y132.35 E28.14447
G1 X109.978 Y132.484 E28.16759
G1 X107.42 Y133.161 E28.30112
G1 X106.975 Y133.261 E28.32414
G1 X105.362 Y133.559 E28.40692
G1 X104.989 Y133.616 E28.42596
G1 X103.104 Y133.843 E28.52177
G1 X102.657 Y133.88 E28.54441
G1 X100.37 Y133.983 E28.65994
G1 X99.836 Y133.983 E28.68689
G1 X97.222 Y133.868 E28.81893
G1 X96.753 Y133.829 E28.84268
G1 X94.932 Y133.605 E28.93527
G1 X94.49 Y133.534 E28.95786
G1 X92.191 Y133.075 E29.07617
G1 X91.771 Y132.975 E29.09796
G1 X90.165 Y132.532 E29.18203
G1 X89.727 Y132.393 E29.20522
G1 X87.297 Y131.518 E29.33556
G1 X86.862 Y131.342 E29.35924
G1 X85.176 Y130.581 E29.45259
G1 X84.831 Y130.412 E29.47198
G1 X83.305 Y129.602 E29.55917
G1 X82.937 Y129.39 E29.5806
G1 X81.016 Y128.189 E29.69493
G1 X80.582 Y127.89 E29.72153
G1 X78.525 Y126.337 E29.8516
G1 X78.172 Y126.048 E29.87462
G1 X76.912 Y124.937 E29.95939
G1 X76.634 Y124.677 E29.9786
G1 X75.28 Y123.321 E30.07531
G1 X74.977 Y122.994 E30.09781
G1 X73.481 Y121.255 E30.21357
G1 X73.149 Y120.832 E30.24071
G1 X71.636 Y118.716 E30.37198
G1 X71.376 Y118.32 E30.39589
G1 X70.407 Y116.71 E30.49072
G1 X70.192 Y116.321 E30.51315
G1 X69.159 Y114.276 E30.62877
G1 X68.978 Y113.883 E30.6506
G1 X68.322 Y112.312 E30.73652
G1 X68.161 Y111.879 E30.75983
G1 X67.347 Y109.41 E30.89103
G1 X67.203 Y108.897 E30.91792
G1 X66.643 Y106.502 E31.04204
G1 X66.555 Y106.052 E31.06518
G1 X66.296 Y104.376 E31.15076
G1 X66.244 Y103.923 E31.17377
G1 X66.045 Y101.353 E31.30386
G1 X66.027 Y100.88 E31.32775
G1 X66.03 Y99.01 E31.42212
G1 X66.047 Y98.566 E31.44454
G1 X66.222 Y96.26 E31.56125
G1 X66.286 Y95.73 E31.58819
G1 X66.712 Y93.167 E31.71931
G1 X66.803 Y92.726 E31.74203
G1 X67.192 Y91.135 E31.82468
G1 X67.294 Y90.767 E31.84396
G1 X67.873 Y88.918 E31.94173
G1 X68.023 Y88.496 E31.96434
G1 X68.851 Y86.411 E32.07755
G1 X69.023 Y86.02 E32.09911
G1 X69.768 Y84.475 E32.18567
G1 X69.982 Y84.07 E32.20878
G1 X71.259 Y81.869 E32.3372
G1 X71.512 Y81.47 E32.36104
G1 X72.607 Y79.885 E32.45826
G1 X72.885 Y79.514 E32.48166
G1 X74.363 Y77.693 E32.60001
G1 X74.639 Y77.377 E32.62119
G1 X75.743 Y76.196 E32.70277
G0 F3600 X76.035 Y76.469
G1 F1800 X76.337 Y76.17 E32.72422
G1 X78.236 Y74.425 E32.85437
G1 X78.58 Y74.133 E32.87714
G1 X80.124 Y72.928 E32.97598
G1 X80.464 Y72.682 E32.99716
G1 X82.345 Y71.429 E33.11121
G1 X82.767 Y71.175 E33.13607
G1 X85.042 Y69.933 E33.26687
G1 X85.49 Y69.714 E33.29204
