;FLAVOR:Marlin
;TIME:1590
;Filament used: 1.64005m
;Layer height: 0.2
;Generated with Cura_SteamEngine 3.2.0
M190 S60
M104 S210
M109 S210
M82 ;absolute extrusion mode
G21 ;metric values
G90 ;absolute positioning
M82 ;set extruder to absolute mode
M107 ;start with the fan off
G28 X0 Y0 ;move X/Y to min endstops
G28 Z0 ;move Z to min endstops
G1 Z15.0 F9000 ;move the platform down 15mm
G92 E0 ;zero the extruded length
G1 F200 E3 ;extrude 3mm of feed stock
G92 E0 ;zero the extruded length again
G1 F9000
;Put printing message on LCD screen
M117 Printing...
;LAYER_COUNT:68
;LAYER:0
M107
G0 F3600 X80.008 Y67.653 Z0.3
;TYPE:SKIRT
G1 F1800 X80.662 Y66.896 E0.04991
G1 X84.608 Y62.95 E0.32832
G1 X85.157 Y62.457 E0.36513
G1 X85.762 Y62.023 E0.40228
G1 X86.101 Y61.807 E0.42233
G1 X86.743 Y61.445 E0.4591
G1 X87.421 Y61.155 E0.49589
G1 X88.126 Y60.94 E0.53267
G1 X88.851 Y60.802 E0.56949
G1 X89.685 Y60.742 E0.6112
G1 X93.773 Y60.7 E0.81516
G1 X94.041 Y60.703 E0.82854
G1 X98.358 Y60.829 E1.044
G1 X105.049 Y60.703 E1.37788
G1 X105.194 Y60.702 E1.38511
G1 X109.601 Y60.713 E1.60498
G1 X110.337 Y60.755 E1.64176
G1 X111.064 Y60.876 E1.67853
G1 X111.774 Y61.075 E1.71531
G1 X112.403 Y61.325 E1.74908
G1 X112.875 Y61.54 E1.77496
G1 X113.528 Y61.881 E1.81171
G1 X114.141 Y62.292 E1.84853
G1 X114.573 Y62.645 E1.87636
G1 X119.022 Y66.599 E2.17332
G1 X119.546 Y67.118 E2.21011
G1 X120.01 Y67.691 E2.2469
G1 X120.262 Y68.064 E2.26935
G1 X120.465 Y68.387 E2.28839
G1 X120.823 Y69.031 E2.32515
G1 X121.109 Y69.711 E2.36195
G1 X121.32 Y70.417 E2.39871
G1 X121.453 Y71.142 E2.43549
G1 X121.508 Y72.002 E2.47848
G1 X121.536 Y128.044 E5.27443
G1 X121.496 Y128.78 E5.3112
G1 X121.377 Y129.507 E5.34795
G1 X121.247 Y130.007 E5.37373
G1 X121.16 Y130.296 E5.38879
G1 X120.91 Y130.99 E5.42559
G1 X120.586 Y131.652 E5.46236
G1 X120.192 Y132.275 E5.49913
G1 X119.733 Y132.852 E5.53592
G1 X119.467 Y133.135 E5.55529
G1 X119.212 Y133.391 E5.57332
G1 X118.664 Y133.884 E5.6101
G1 X118.066 Y134.315 E5.64687
G1 X117.425 Y134.679 E5.68365
G1 X116.748 Y134.972 E5.72045
G1 X116.365 Y135.1 E5.7406
G1 X110.261 Y136.949 E6.05879
G1 X105.089 Y138.843 E6.33358
G1 X104.384 Y139.059 E6.37037
G1 X103.659 Y139.197 E6.40719
G1 X102.763 Y139.258 E6.45199
G1 X96.806 Y139.269 E6.74919
G1 X96.069 Y139.23 E6.78601
G1 X95.342 Y139.112 E6.82276
G1 X94.358 Y138.818 E6.87399
G1 X90.448 Y137.319 E7.08291
G1 X83.514 Y135.067 E7.44663
G1 X82.826 Y134.801 E7.48343
G1 X82.171 Y134.463 E7.52021
G1 X81.556 Y134.056 E7.557
G1 X80.815 Y133.417 E7.60582
G1 X80.558 Y133.161 E7.62391
G1 X80.065 Y132.613 E7.66069
G1 X79.634 Y132.015 E7.69746
G1 X79.27 Y131.373 E7.73428
G1 X78.977 Y130.697 E7.77104
G1 X78.76 Y129.992 E7.80784
G1 X78.67 Y129.577 E7.82903
G1 X78.565 Y129.008 E7.85789
G1 X78.471 Y128.277 E7.89466
G1 X78.452 Y127.773 E7.91983
G1 X78.463 Y72.165 E10.69412
G1 X78.503 Y71.428 E10.73094
G1 X78.623 Y70.701 E10.76771
G1 X78.82 Y69.991 E10.80447
G1 X79.057 Y69.386 E10.83688
G1 X79.264 Y68.924 E10.86214
G1 X79.602 Y68.268 E10.89896
G1 X80.008 Y67.653 E10.93572
G0 F3600 X80.355 Y67.857
G1 F1800 X80.945 Y67.179 E10.98056
G1 X84.891 Y63.233 E11.25897
G1 X85.424 Y62.756 E11.29466
G1 X85.977 Y62.361 E11.32856
G1 X86.316 Y62.145 E11.34862
G1 X86.94 Y61.794 E11.38434
G1 X87.599 Y61.516 E11.42002
G1 X88.284 Y61.313 E11.45566
G1 X88.989 Y61.188 E11.49138
G1 X89.689 Y61.142 E11.52638
G1 X93.777 Y61.1 E11.73035
G1 X94.03 Y61.103 E11.74297
G1 X98.354 Y61.229 E11.95879
G1 X105.056 Y61.103 E12.29321
G1 X105.193 Y61.102 E12.30004
G1 X109.6 Y61.113 E12.51991
G1 X110.314 Y61.155 E12.55559
G1 X111.019 Y61.276 E12.59128
G1 X111.706 Y61.475 E12.62696
G1 X112.237 Y61.689 E12.65553
G1 X112.709 Y61.904 E12.6814
G1 X113.342 Y62.236 E12.71706
G1 X113.935 Y62.637 E12.75278
G1 X114.308 Y62.944 E12.77688
G1 X118.757 Y66.898 E13.07383
G1 X119.264 Y67.403 E13.10953
G1 X119.712 Y67.96 E13.14519
G1 X119.924 Y68.276 E13.16418
G1 X120.127 Y68.599 E13.18321
G1 X120.473 Y69.225 E13.2189
G1 X120.747 Y69.886 E13.25459
G1 X120.946 Y70.573 E13.29028
G1 X121.067 Y71.278 E13.32596
G1 X121.108 Y72.002 E13.36214
G1 X121.136 Y128.044 E16.15809
G1 X121.096 Y128.758 E16.19377
G1 X120.977 Y129.463 E16.22944
G1 X120.864 Y129.892 E16.25157
G1 X120.777 Y130.181 E16.26663
G1 X120.533 Y130.853 E16.3023
G1 X120.216 Y131.494 E16.33797
G1 X119.828 Y132.095 E16.37366
G1 X119.183 Y132.853 E16.42332
G1 X118.928 Y133.109 E16.44134
G1 X118.396 Y133.586 E16.47699
G1 X117.814 Y134.002 E16.51268
G1 X117.189 Y134.35 E16.54837
G1 X116.249 Y134.717 E16.59872
G1 X110.144 Y136.566 E16.91696
G1 X104.951 Y138.468 E17.19287
G1 X104.267 Y138.676 E17.22854
G1 X103.564 Y138.806 E17.2642
G1 X102.762 Y138.858 E17.3043
G1 X96.805 Y138.869 E17.6015
G1 X96.091 Y138.83 E17.63717
G1 X95.385 Y138.712 E17.67288
G1 X94.502 Y138.445 E17.71891
G1 X90.572 Y136.938 E17.9289
G1 X83.637 Y134.686 E18.29267
G1 X82.97 Y134.428 E18.32835
G1 X82.337 Y134.096 E18.36401
G1 X81.744 Y133.696 E18.39969
G1 X81.097 Y133.133 E18.44248
G1 X80.84 Y132.877 E18.46058
G1 X80.363 Y132.345 E18.49623
G1 X79.947 Y131.763 E18.53192
G1 X79.599 Y131.138 E18.56761
G1 X79.324 Y130.478 E18.60328
G1 X79.063 Y129.504 E18.65359
G1 X78.958 Y128.935 E18.68245
G1 X78.868 Y128.226 E18.71811
G1 X78.852 Y127.773 E18.74073
G1 X78.863 Y72.165 E21.51502
G1 X78.903 Y71.451 E21.5507
G1 X79.023 Y70.745 E21.58642
G1 X79.22 Y70.058 E21.62208
G1 X79.422 Y69.549 E21.6494
G1 X79.629 Y69.087 E21.67466
G1 X79.958 Y68.452 E21.71034
G1 X80.355 Y67.857 E21.74602
G0 F3600 X80.702 Y68.062
G1 F1800 X81.227 Y67.461 E21.78584
G1 X85.173 Y63.515 E22.06425
G1 X85.69 Y63.055 E22.09877
G1 X86.192 Y62.698 E22.12951
G1 X86.531 Y62.482 E22.14956
G1 X87.135 Y62.144 E22.18409
G1 X87.775 Y61.878 E22.21867
G1 X88.441 Y61.688 E22.25322
G1 X89.124 Y61.575 E22.28776
G1 X89.693 Y61.542 E22.3162
G1 X93.781 Y61.5 E22.52016
G1 X94.018 Y61.503 E22.53198
G1 X98.349 Y61.629 E22.74815
G1 X105.064 Y61.503 E23.08322
G1 X105.192 Y61.502 E23.08961
G1 X109.599 Y61.513 E23.30947
G1 X110.29 Y61.555 E23.34401
G1 X110.972 Y61.676 E23.37857
G1 X111.635 Y61.875 E23.4131
G1 X112.071 Y62.053 E23.4366
G1 X112.543 Y62.268 E23.46247
G1 X113.156 Y62.591 E23.49704
G1 X113.727 Y62.982 E23.53157
G1 X114.042 Y63.243 E23.55198
G1 X118.491 Y67.197 E23.84893
G1 X118.981 Y67.686 E23.88347
G1 X119.585 Y68.489 E23.9336
G1 X119.788 Y68.812 E23.95263
G1 X120.122 Y69.419 E23.98719
G1 X120.384 Y70.06 E24.02174
G1 X120.57 Y70.727 E24.05629
G1 X120.679 Y71.411 E24.09084
G1 X120.708 Y72.002 E24.12036
G1 X120.736 Y128.044 E26.91631
G1 X120.696 Y128.735 E26.95084
G1 X120.577 Y129.418 E26.98543
G1 X120.481 Y129.777 E27.00397
G1 X120.394 Y130.066 E27.01903
G1 X120.157 Y130.716 E27.05355
G1 X119.846 Y131.335 E27.08811
G1 X119.466 Y131.914 E27.12266
G1 X118.9 Y132.57 E27.16588
G1 X118.645 Y132.826 E27.18391
G1 X118.129 Y133.288 E27.21847
G1 X117.563 Y133.687 E27.25301
G1 X116.955 Y134.018 E27.28755
G1 X116.133 Y134.334 E27.33149
G1 X110.017 Y136.186 E27.6503
G1 X104.814 Y138.092 E27.92675
G1 X104.151 Y138.292 E27.9613
G1 X103.469 Y138.415 E27.99587
G1 X102.761 Y138.458 E28.03126
G1 X96.804 Y138.469 E28.32845
G1 X96.113 Y138.43 E28.36298
G1 X95.43 Y138.312 E28.39756
G1 X94.645 Y138.071 E28.43853
G1 X90.718 Y136.565 E28.64836
G1 X83.761 Y134.306 E29.01329
G1 X83.116 Y134.054 E29.04784
G1 X82.504 Y133.73 E29.08238
G1 X81.933 Y133.337 E29.11697
G1 X81.38 Y132.85 E29.15373
G1 X81.123 Y132.594 E29.17183
G1 X80.661 Y132.078 E29.20638
G1 X80.262 Y131.512 E29.24093
G1 X79.931 Y130.903 E29.27551
G1 X79.672 Y130.261 E29.31005
G1 X79.457 Y129.432 E29.35277
G1 X79.352 Y128.863 E29.38164
G1 X79.265 Y128.176 E29.41619
G1 X79.252 Y127.773 E29.43631
G1 X79.263 Y72.165 E32.2106
G1 X79.303 Y71.473 E32.24518
G1 X79.423 Y70.791 E32.27973
G1 X79.62 Y70.127 E32.31428
G1 X79.787 Y69.713 E32.33656
G1 X79.994 Y69.251 E32.36181
G1 X80.314 Y68.636 E32.3964
G1 X80.702 Y68.062 E32.43097
G0 F3600 X81.047 Y68.269
G1 F1800 X81.51 Y67.744 E32.46589
G1 X85.456 Y63.798 E32.7443
G1 X85.957 Y63.354 E32.7777
G1 X86.407 Y63.035 E32.80522
G1 X86.746 Y62.819 E32.82527
G1 X87.33 Y62.494 E32.85862
G1 X87.95 Y62.241 E32.89202
G1 X88.595 Y62.063 E32.92541
G1 X89.256 Y61.964 E32.95875
G1 X89.697 Y61.942 E32.98078
G1 X93.785 Y61.9 E33.18474
G1 X94.006 Y61.902 E33.19577
G1 X98.366 Y62.029 E33.41338
G1 X105.072 Y61.903 E33.748
G1 X105.191 Y61.902 E33.75394
G1 X109.598 Y61.913 E33.97381
G1 X110.266 Y61.955 E34.0072
G1 X110.924 Y62.076 E34.04058
G1 X111.563 Y62.274 E34.07395
G1 X111.905 Y62.417 E34.09245
G1 X112.377 Y62.632 E34.11832
G1 X112.969 Y62.945 E34.15173
G1 X113.518 Y63.326 E34.18507
G1 X113.776 Y63.542 E34.20186
G1 X118.225 Y67.496 E34.49881
G1 X118.698 Y67.97 E34.53222
G1 X119.246 Y68.702 E34.57784
G1 X119.449 Y69.025 E34.59687
G1 X119.771 Y69.612 E34.63028
G1 X120.02 Y70.233 E34.66365
G1 X120.194 Y70.879 E34.69703
G1 X120.289 Y71.541 E34.7304
G1 X120.308 Y72.002 E34.75342
G1 X120.336 Y128.044 E37.54936
G1 X120.296 Y128.712 E37.58275
G1 X120.098 Y129.661 E37.63112
G1 X120.011 Y129.95 E37.64617
G1 X119.781 Y130.578 E37.67954
G1 X119.476 Y131.174 E37.71294
G1 X119.104 Y131.73 E37.74632
G1 X118.617 Y132.288 E37.78327
G1 X118.362 Y132.544 E37.80129
G1 X117.862 Y132.989 E37.83469
G1 X117.313 Y133.371 E37.86805
G1 X116.722 Y133.685 E37.90144
G1 X116.017 Y133.952 E37.93905
G1 X109.869 Y135.814 E38.25954
G1 X104.676 Y137.716 E38.53545
G1 X104.035 Y137.909 E38.56885
G1 X103.376 Y138.023 E38.60221
G1 X102.76 Y138.058 E38.63299
G1 X96.803 Y138.069 E38.93019
G1 X96.135 Y138.03 E38.96357
G1 X95.477 Y137.912 E38.99693
G1 X94.788 Y137.698 E39.03292
G1 X90.835 Y136.182 E39.24414
G1 X83.884 Y133.925 E39.60875
G1 X83.262 Y133.681 E39.64208
G1 X82.672 Y133.364 E39.6755
G1 X82.125 Y132.979 E39.70887
G1 X81.662 Y132.567 E39.73979
G1 X81.405 Y132.311 E39.75789
G1 X80.96 Y131.811 E39.79128
G1 X80.578 Y131.262 E39.82465
G1 X80.264 Y130.671 E39.85804
G1 X80.023 Y130.047 E39.89141
G1 X79.85 Y129.359 E39.9268
G1 X79.745 Y128.79 E39.95567
G1 X79.663 Y128.126 E39.98905
G1 X79.652 Y127.773 E40.00667
G1 X79.663 Y72.165 E42.78096
G1 X79.703 Y71.497 E42.81435
G1 X79.823 Y70.839 E42.84772
G1 X80.02 Y70.199 E42.88113
G1 X80.153 Y69.876 E42.89856
G1 X80.36 Y69.414 E42.92381
G1 X80.669 Y68.821 E42.95717
G1 X81.047 Y68.269 E42.99055
G0 F3600 X81.392 Y68.478
G1 F1800 X81.793 Y68.027 E43.02066
G1 X85.739 Y64.081 E43.29907
G1 X86.222 Y63.654 E43.33123
G1 X86.622 Y63.373 E43.35562
G1 X86.961 Y63.157 E43.37568
G1 X87.525 Y62.845 E43.40783
G1 X88.123 Y62.605 E43.43998
G1 X88.747 Y62.441 E43.47217
G1 X89.702 Y62.342 E43.52007
G1 X93.79 Y62.3 E43.72403
G1 X93.995 Y62.302 E43.73426
G1 X98.362 Y62.43 E43.95222
G1 X105.079 Y62.303 E44.2874
G1 X105.19 Y62.302 E44.29293
G1 X109.597 Y62.313 E44.5128
G1 X110.24 Y62.355 E44.54495
G1 X110.874 Y62.475 E44.57714
G1 X111.74 Y62.781 E44.62296
G1 X112.212 Y62.996 E44.64884
G1 X112.781 Y63.299 E44.681
G1 X113.51 Y63.841 E44.72632
G1 X117.959 Y67.795 E45.02327
G1 X118.414 Y68.252 E45.05545
G1 X118.908 Y68.915 E45.0967
G1 X119.111 Y69.238 E45.11573
G1 X119.419 Y69.804 E45.14788
G1 X119.655 Y70.404 E45.18004
G1 X119.815 Y71.028 E45.21218
G1 X119.897 Y71.668 E45.24437
G1 X119.908 Y72.002 E45.26105
G1 X119.936 Y128.044 E48.05699
G1 X119.896 Y128.688 E48.08918
G1 X119.715 Y129.546 E48.13293
G1 X119.628 Y129.835 E48.14799
G1 X119.405 Y130.44 E48.18016
G1 X119.108 Y131.012 E48.21231
G1 X118.742 Y131.543 E48.24449
G1 X118.333 Y132.006 E48.27531
G1 X118.078 Y132.262 E48.29334
G1 X117.596 Y132.689 E48.32546
G1 X117.064 Y133.054 E48.35765
G1 X116.491 Y133.35 E48.38983
G1 X115.901 Y133.569 E48.42122
G1 X109.752 Y135.431 E48.74175
G1 X104.538 Y137.341 E49.01879
G1 X103.92 Y137.525 E49.05096
G1 X103.285 Y137.63 E49.08307
G1 X102.76 Y137.658 E49.1093
G1 X96.803 Y137.669 E49.40649
G1 X96.159 Y137.63 E49.43868
G1 X95.525 Y137.512 E49.47085
G1 X94.931 Y137.324 E49.50194
G1 X90.981 Y135.809 E49.713
G1 X84.008 Y133.545 E50.07876
G1 X83.408 Y133.308 E50.11095
G1 X82.843 Y132.999 E50.14308
G1 X82.319 Y132.622 E50.17528
G1 X81.944 Y132.283 E50.2005
G1 X81.687 Y132.027 E50.2186
G1 X81.26 Y131.545 E50.25073
G1 X80.895 Y131.013 E50.28291
G1 X80.599 Y130.44 E50.31509
G1 X80.376 Y129.836 E50.34721
G1 X80.243 Y129.287 E50.37539
G1 X80.138 Y128.718 E50.40426
G1 X80.052 Y127.773 E50.4516
G1 X80.063 Y72.165 E53.2259
G1 X80.103 Y71.522 E53.25804
G1 X80.222 Y70.888 E53.29022
G1 X80.518 Y70.04 E53.33503
G1 X80.725 Y69.578 E53.36029
G1 X81.024 Y69.007 E53.39244
G1 X81.392 Y68.478 E53.42459
G1 F1500 E46.92459
G0 F3600 X88.585 Y68.478
G0 X89.87 Y68.478
G0 X94.58 Y72.17
G0 X94.65 Y72.1
;TYPE:WALL-INNER
G1 F1500 E53.42459
G1 F1800 X104.85 Y72.1 E53.93347
G1 X104.85 Y68.24 E54.12605
G1 X104.868 Y68.152 E54.13053
G1 X104.902 Y68.118 E54.13293
G1 X104.925 Y68.109 E54.13416
G1 X104.99 Y68.1 E54.13744
G1 X109.51 Y68.1 E54.36294
G1 X109.598 Y68.118 E54.36742
G1 X109.632 Y68.152 E54.36982
G1 X109.641 Y68.175 E54.37105
G1 X109.65 Y68.24 E54.37433
G1 X109.65 Y72.1 E54.5669
G1 X114.01 Y72.1 E54.78442
G1 X114.098 Y72.118 E54.7889
G1 X114.132 Y72.152 E54.7913
G1 X114.141 Y72.175 E54.79254
G1 X114.15 Y72.24 E54.79581
G1 X114.15 Y127.96 E57.57569
G1 X114.132 Y128.048 E57.58017
G1 X114.098 Y128.082 E57.58257
G1 X114.075 Y128.091 E57.5838
G1 X114.01 Y128.1 E57.58708
G1 X102.65 Y128.1 E58.15383
G1 X102.65 Y131.76 E58.33643
G1 X102.632 Y131.848 E58.34091
G1 X102.598 Y131.882 E58.34331
G1 X102.575 Y131.891 E58.34454
G1 X102.51 Y131.9 E58.34781
G1 X96.99 Y131.9 E58.62321
G1 X96.902 Y131.882 E58.62769
G1 X96.868 Y131.848 E58.63009
G1 X96.859 Y131.825 E58.63132
G1 X96.85 Y131.76 E58.63459
G1 X96.85 Y128.1 E58.81719
G1 X85.99 Y128.1 E59.359
G1 X85.902 Y128.082 E59.36348
G1 X85.868 Y128.048 E59.36588
G1 X85.859 Y128.025 E59.36711
G1 X85.85 Y127.96 E59.37039
G1 X85.85 Y72.24 E62.15027
G1 X85.868 Y72.152 E62.15475
G1 X85.902 Y72.118 E62.15715
G1 X85.925 Y72.109 E62.15838
G1 X85.99 Y72.1 E62.16165
G1 X89.85 Y72.1 E62.35423
G1 X89.85 Y68.24 E62.54681
G1 X89.868 Y68.152 E62.55129
G1 X89.902 Y68.118 E62.55369
G1 X89.925 Y68.109 E62.55492
G1 X89.99 Y68.1 E62.55819
G1 X94.51 Y68.1 E62.7837
G1 X94.575 Y68.109 E62.78697
G1 X94.617 Y68.133 E62.78938
G1 X94.641 Y68.175 E62.7918
G1 X94.65 Y68.24 E62.79507
G1 X94.65 Y72.1 E62.98765
G0 F3600 X94.58 Y72.17
G0 X100.83 Y128.181
G0 X100.768 Y128.258
G1 F1800 X100.39 Y128.032 E63.00962
G1 X100.011 Y127.922 E63.02931
G1 X99.8 Y127.908 E63.03986
G1 X99.592 Y127.908 E63.05024
G1 X99.206 Y127.996 E63.06999
G1 X99.022 Y128.084 E63.08016
G1 X98.844 Y128.184 E63.09035
G1 X98.58 Y128.401 E63.1074
G1 X98.344 Y128.727 E63.12748
G1 X98.196 Y129.101 E63.14754
G1 X98.145 Y129.5 E63.16761
G1 X98.196 Y129.899 E63.18768
G1 X98.344 Y130.273 E63.20775
G1 X98.58 Y130.599 E63.22783
G1 X98.89 Y130.854 E63.24785
G1 X99.254 Y131.026 E63.26794
G1 X99.649 Y131.101 E63.288
G1 X100.05 Y131.076 E63.30804
G1 X100.434 Y130.953 E63.32816
G1 X100.772 Y130.736 E63.3482
G1 X101.048 Y130.445 E63.36821
G1 X101.243 Y130.09 E63.38841
G1 X101.342 Y129.7 E63.40849
G1 X101.342 Y129.3 E63.42844
G1 X101.243 Y128.91 E63.44852
G1 X101.048 Y128.556 E63.46868
G1 X100.768 Y128.258 E63.48908
G0 F3600 X100.515 Y128.573
;TYPE:WALL-OUTER
G1 F1800 X100.229 Y128.402 E63.50571
G1 X99.941 Y128.318 E63.52067
G1 X99.787 Y128.308 E63.52837
G1 X99.637 Y128.308 E63.53586
G1 X99.338 Y128.376 E63.55115
G1 X99.206 Y128.439 E63.55845
G1 X99.071 Y128.515 E63.56618
G1 X98.874 Y128.677 E63.5789
G1 X98.697 Y128.921 E63.59394
G1 X98.586 Y129.201 E63.60897
G1 X98.548 Y129.5 E63.62401
G1 X98.586 Y129.799 E63.63904
G1 X98.697 Y130.079 E63.65407
G1 X98.874 Y130.323 E63.66911
G1 X99.106 Y130.514 E63.6841
